assets/features/channel/southeast-asia/ACB.svg

<svg width="80" height="80" viewBox="0 0 80 80" fill="none" xmlns="http://www.w3.org/2000/svg">
<rect width="80" height="80" rx="8" fill="#0038A8"/>
<path d="M67.8572 43.1502C67.5635 41.661 66.6297 40.4155 65.2949 39.7387C64.8948 39.522 64.4412 39.3596 64.1208 39.1972C64.6277 38.791 65.2686 38.439 65.6955 37.9246C66.7628 36.6791 67.1099 35.2442 66.7895 33.6196C66.5491 32.1576 65.6421 30.9121 64.3611 30.2352C63.0267 29.4771 61.5589 29.2334 60.0643 29.2064C57.6092 29.1793 55.1274 29.2064 52.672 29.2064C52.0583 29.2064 51.9248 29.3417 51.9248 29.9645V49.6753C51.9248 50.2439 52.0849 50.4333 52.6454 50.4333C53.7129 50.4333 54.7802 50.4604 55.848 50.4333C57.983 50.3793 60.091 50.3522 62.226 50.2439C63.4002 50.1897 64.548 49.8107 65.5352 49.1879C66.4428 48.6464 67.1633 47.8071 67.5368 46.8054C68.017 45.6681 68.1238 44.3685 67.8572 43.1502ZM56.5682 33.0511C57.9563 33.1864 59.317 32.8344 60.6513 33.2677C61.6657 33.5926 62.1993 34.3778 62.1192 35.5149C62.0391 36.4084 61.639 37.3019 60.4648 37.4643C59.2106 37.6538 57.9025 37.6538 56.5682 37.7622V33.0511ZM63.0534 44.3956C62.9466 45.4786 62.1192 46.345 61.0519 46.4533C59.584 46.6428 58.0894 46.6428 56.5682 46.7512V41.2278C58.1696 41.3361 59.7442 41.0112 61.2918 41.5256C62.413 41.9047 63.187 42.6627 63.0534 44.3956Z" fill="white"/>
<path d="M42.5839 28.7998C45.1192 28.881 47.441 29.6391 49.3892 31.3449C49.5492 31.4803 49.6828 31.5886 49.8428 31.7239C50.2699 32.0759 50.3232 32.4008 49.8961 32.8611C49.2557 33.5921 48.5885 34.269 47.8946 34.9188C47.7612 35.0542 47.6011 35.1354 47.4143 35.1354C47.2275 35.1354 47.0407 35.0542 46.9339 34.9188C46.0532 34.1336 44.9857 33.6192 43.8382 33.4026C42.3171 33.1589 40.7425 33.538 39.4883 34.4585C37.7001 35.7581 36.7394 37.6534 36.6861 40.009C36.7127 43.0143 38.4208 45.5052 41.0627 46.3987C43.3044 47.1568 45.2793 46.5882 47.0407 45.0179C47.4143 44.693 47.6545 44.6659 47.9747 45.0179C48.6685 45.7219 49.3357 46.4258 50.0296 47.1297C50.3766 47.5088 50.3766 47.8608 50.0029 48.2127C47.1742 50.9744 43.1444 51.9492 39.4348 50.812C37.967 50.3517 36.6059 49.5666 35.4584 48.5106C33.5637 46.8319 32.3094 44.5306 31.9358 42.0125C31.4287 38.6823 32.0959 35.5957 34.2041 32.9694C35.8055 30.9388 37.8869 29.5579 40.449 29.0976C41.1161 28.9081 41.8366 28.7998 42.5839 28.7998Z" fill="white"/>
<path fill-rule="evenodd" clip-rule="evenodd" d="M47.04 40.0904C47.0133 41.4712 46.2661 42.7437 45.0652 43.4207C43.8643 44.0975 42.4231 44.0704 41.249 43.3665C40.0747 42.6625 39.3809 41.3629 39.3809 39.9821C39.3809 38.9532 39.7812 37.9785 40.5016 37.2475C41.2223 36.5164 42.183 36.1374 43.1971 36.1644C45.3054 36.1644 47.0668 37.7348 47.04 40.0904Z" fill="#00AFFF"/>
<path d="M22.1943 34.4592C21.3403 37.0855 20.513 39.6306 19.659 42.2027H24.6495L22.1943 34.4592ZM25.2634 30.2625C26.5176 33.7823 27.7986 37.3021 29.0795 40.8218C30.2005 43.9084 31.3212 46.968 32.4422 50.0274C32.6823 50.7043 32.5755 50.8398 31.8551 50.8398H28.1455C27.6919 50.8667 27.2916 50.569 27.1848 50.1358C26.7577 48.8362 26.3041 47.5636 25.9038 46.264C25.9038 46.1556 25.8505 46.0745 25.7703 46.0203C25.6903 45.9662 25.5835 45.9391 25.5034 45.9391H18.8317C18.5648 45.9391 18.4847 46.0474 18.4047 46.264C17.9777 47.5636 17.524 48.8633 17.1237 50.1899C17.017 50.596 16.6433 50.8667 16.243 50.8127C15.0154 50.8127 13.7878 50.8127 12.5602 50.8127C12.0265 50.8127 11.893 50.6231 12.0798 50.1087C13.0139 47.6448 13.9213 45.2081 14.8286 42.7441C15.5759 40.7677 16.2964 38.7912 17.017 36.8147C17.8176 34.6758 18.5915 32.5098 19.3921 30.3708C19.6323 29.7752 19.8992 29.6127 20.5397 29.6127H24.3026C24.7562 29.5856 25.1298 29.8564 25.2634 30.2625Z" fill="white"/>
</svg>

<svg xmlns="http://www.w3.org/2000/svg" width="80" height="80" fill="none" viewBox="0 0 80 80"><rect width="80" height="80" fill="#0038a8" rx="8"/><path fill="#fff" d="M67.857 43.15a4.84 4.84 0 0 0-2.562-3.411c-.4-.217-.854-.38-1.174-.542.507-.406 1.148-.758 1.575-1.272 1.067-1.246 1.414-2.68 1.094-4.305a4.68 4.68 0 0 0-2.429-3.385c-1.334-.758-2.802-1.002-4.297-1.029-2.455-.027-4.937 0-7.392 0-.614 0-.747.136-.747.759v19.71c0 .569.16.758.72.758 1.068 0 2.135.027 3.203 0 2.135-.054 4.243-.08 6.378-.19a6.83 6.83 0 0 0 3.31-1.055 4.7 4.7 0 0 0 2-2.383 6.1 6.1 0 0 0 .321-3.655M56.568 33.051c1.388.135 2.749-.217 4.083.217 1.015.325 1.548 1.11 1.468 2.247-.08.893-.48 1.787-1.654 1.95-1.254.189-2.562.189-3.897.297zm6.485 11.345c-.106 1.083-.934 1.949-2.001 2.057-1.468.19-2.963.19-4.484.298v-5.523c1.602.108 3.176-.217 4.724.298 1.121.379 1.895 1.137 1.761 2.87M42.584 28.8c2.535.081 4.857.84 6.805 2.545.16.135.294.244.454.379.427.352.48.677.053 1.137a29 29 0 0 1-2.001 2.058.66.66 0 0 1-.48.216.62.62 0 0 1-.481-.216 6.4 6.4 0 0 0-3.096-1.516 5.82 5.82 0 0 0-4.35 1.056c-1.788 1.3-2.749 3.194-2.802 5.55.027 3.005 1.735 5.496 4.377 6.39 2.241.758 4.216.19 5.978-1.381.373-.325.614-.352.934 0 .694.704 1.36 1.408 2.055 2.112.347.379.347.73-.027 1.083-2.829 2.761-6.859 3.736-10.568 2.599a10.5 10.5 0 0 1-3.977-2.301 10.8 10.8 0 0 1-3.522-6.498c-.507-3.33.16-6.417 2.268-9.044 1.602-2.03 3.683-3.411 6.245-3.871a7.8 7.8 0 0 1 2.135-.298"/><path fill="#00afff" fill-rule="evenodd" d="M47.04 40.09a3.91 3.91 0 0 1-1.975 3.33c-1.2.677-2.642.65-3.816-.053s-1.868-2.004-1.868-3.385c0-1.029.4-2.004 1.12-2.734a3.6 3.6 0 0 1 2.696-1.084c2.108 0 3.87 1.57 3.843 3.926" clip-rule="evenodd"/><path fill="#fff" d="M22.194 34.46c-.854 2.626-1.681 5.17-2.535 7.743h4.99zm3.07-4.198c1.254 3.52 2.535 7.04 3.816 10.56 1.12 3.086 2.241 6.146 3.362 9.205.24.677.133.813-.587.813h-3.71a.93.93 0 0 1-.96-.704c-.427-1.3-.88-2.572-1.281-3.872a.28.28 0 0 0-.134-.244.5.5 0 0 0-.267-.08h-6.671c-.267 0-.347.107-.427.324-.427 1.3-.881 2.6-1.281 3.926-.107.406-.48.677-.881.623H12.56c-.534 0-.667-.19-.48-.704.934-2.464 1.841-4.9 2.749-7.365.747-1.976 1.467-3.953 2.188-5.93.8-2.138 1.575-4.304 2.375-6.443.24-.596.507-.758 1.148-.758h3.763a.934.934 0 0 1 .96.65"/></svg>
